!!!SOCIAL_FUNCTION:	initiation songs of the first and second degrees
!!!PDT:	1909
!!!OTL: No_15_Second_Song_of_the_Feast.krn
!!!REG: Great_Lakes
!!!LANG: Non-Tone
!!!LING_GROUP: Algonquin
**kern
*staff1
*clefF4
*k[b-]
*M3/4
8c\
=1
12c\L
12c\
12c\J
4c\
8.c\L
16A\Jk
=2
12F\L
12G\
12G\J
4G\
8.G\L
16A\Jk
=3
12A\L
12A\
12A\J
4G\
8G\L
8F\J
=4||
*M4/4
12D\L
12F\
12F\J
4F\
4F\
8.F\L
16G\Jk
=5||
*M3/4
12G\L
12A\
12G\J
4F\
8.F\L
16D\Jk
=6
12C\L
12D\
12D\J
4D\
8.D\L
16F\Jk
=7
12F\L
12F\
12D\J
4C/
8.C/L
16C/Jk
=8
12BBn/L
12C/
12C/J
4C/
8.C/L
16C/Jk
=9
12C/L
12D/
12C/J
4C/
8.C/L
16GG/Jk
=10
12FF/L
12FF/
12FF/J
4FF/
8FF/
8r
==
*-
